X: 9
T: Tommy Peoples'
Z: Erik-Fiddler
S: https://thesession.org/tunes/192#setting50173
R: reel
M: 4/4
L: 1/8
K: Bmin
|:B,3 C DB,A,2|B,3 C DFD2|B,3 C DCDB,|1 A,B,DE FDED:|2 A,B,DE F3 E||
|:DFAF BFAF|DFAF GEFG|AFGE D3 B,|1 A,B,DE F2 FE:|2 A,B,CD EFGA||
|:B3 c dBAF|B3 c dfed|B3 c dcdB|ABde fded|
B3 c dBAF|BABc dfed|BABc d2 cd|ABde f3 e|
dfaf bfaf|dfaf gefg|afef d3 B|ABde ~f3 e|
dfaf bfaf|dfaf gefg|afef d3 B|ABde ~f3 z:|

